app/assets/images/heroicons/solid/tag.svg

<svg width="24" height="24" viewBox="0 0 24 24" fill="none" xmlns="http://www.w3.org/2000/svg">
<path fill-rule="evenodd" clip-rule="evenodd" d="M5.25 2.25C3.59315 2.25 2.25 3.59315 2.25 5.25V9.56802C2.25 10.3637 2.56607 11.1267 3.12868 11.6893L12.7098 21.2705C13.6291 22.1898 15.0989 22.4564 16.2573 21.698C18.4242 20.2793 20.2793 18.4242 21.698 16.2573C22.4564 15.0989 22.1898 13.6291 21.2705 12.7098L11.6893 3.12868C11.1267 2.56607 10.3637 2.25 9.56802 2.25H5.25ZM6.375 7.5C6.99632 7.5 7.5 6.99632 7.5 6.375C7.5 5.75368 6.99632 5.25 6.375 5.25C5.75368 5.25 5.25 5.75368 5.25 6.375C5.25 6.99632 5.75368 7.5 6.375 7.5Z" fill="#0F172A"/>
</svg>

<svg xmlns="http://www.w3.org/2000/svg" viewBox="0 0 24 24" fill="currentColor" aria-hidden="true" data-slot="icon">
  <path fill-rule="evenodd" d="M5.25 2.25a3 3 0 0 0-3 3v4.318a3 3 0 0 0 .879 2.121l9.58 9.581c.92.92 2.39 1.186 3.548.428a18.849 18.849 0 0 0 5.441-5.44c.758-1.16.492-2.629-.428-3.548l-9.58-9.581a3 3 0 0 0-2.122-.879H5.25ZM6.375 7.5a1.125 1.125 0 1 0 0-2.25 1.125 1.125 0 0 0 0 2.25Z" clip-rule="evenodd"/>
</svg>
